svgs/sharp-solid/money-bill-1-wave.svg

<svg xmlns="http://www.w3.org/2000/svg" viewBox="0 0 576 512"><!--! Font Awesome Pro 6.6.0 by @fontawesome - https://fontawesome.com License - https://fontawesome.com/license (Commercial License) Copyright 2024 Fonticons, Inc. --><path d="M0 60.3L0 451.7c96 48.9 192 24.5 288 0s192-48.9 288 0l0-391.5c-96-48.9-192-24.5-288 0s-192 48.9-288 0zM128 416l-64 0 0-64c35.3 0 64 28.7 64 64zM64 224l0-64 64 0c0 35.3-28.7 64-64 64zM448 352c0-35.3 28.7-64 64-64l0 64-64 0zm64-192c-35.3 0-64-28.7-64-64l64 0 0 64zM384 256c0 61.9-43 112-96 112s-96-50.1-96-112s43-112 96-112s96 50.1 96 112zM252 188l0 40 16 0 0 48-4 0-20 0 0 40 20 0 24 0 24 0 20 0 0-40-20 0-4 0 0-68 0-20-20 0-16 0-20 0z"/></svg>

<svg xmlns="http://www.w3.org/2000/svg" viewBox="0 0 576 512"><!--! Font Awesome Pro 6.4.2 by @fontawesome - https://fontawesome.com License - https://fontawesome.com/license (Commercial License) Copyright 2023 Fonticons, Inc. --><path d="M0 60.3V451.7c96 48.9 192 24.5 288 0s192-48.9 288 0V60.3c-96-48.9-192-24.5-288 0s-192 48.9-288 0zM128 416H64V352c35.3 0 64 28.7 64 64zM64 224V160h64c0 35.3-28.7 64-64 64zM448 352c0-35.3 28.7-64 64-64v64H448zm64-192c-35.3 0-64-28.7-64-64h64v64zM384 256c0 61.9-43 112-96 112s-96-50.1-96-112s43-112 96-112s96 50.1 96 112zM252 188v40h16v48h-4H244v40h20 24 24 20V276H312h-4V208 188H288 272 252z"/></svg>
